X: 9
T: The Blarney Pilgrim
R: jig
M: 6/8
L: 1/8
K: Dmaj
ABd ABd|e2e efg| fed edB|ded dBA|
ABd ABd|e2e efg|fed edB|ded e3:|
aaa afd| edd fed|aaa afd| ede fab|
d'd'd' bad'|a2a fde|fff fed|edB d3:|


Tune 5	Setting 12354

